X:1
T:New St. Andrew, 77.77 D
T:New St. Andrew, 77.77 D
T:John Gill, before 1918
T:Public Domain Courtesy of the Cyber Hymnal™
C:John Gill, before 1918
Z:Public Domain
Z:Courtesy of the Cyber Hymnal™
%%score ( 1 2 ) ( 3 4 )
L:1/8
Q:1/4=110
M:4/4
K:C
V:1 treble 
V:2 treble 
V:3 bass 
V:4 bass 
V:1
 [EG]2 [Ee]2 [Fd]2 [FA]2 | [FB]2 [FG]2 [EG]4 | [CG]2 [Cc]2 [FA]2 [Fc]2 | [Ff]2 [FA]2 (e2 d2) | %4
 [EG]2 [Ee]2 [Fd]2 [FA]2 | [FB]2 [FG]2 [EG]4 | [DG]2 [GB]2 [Gc]2 [GB]2 | [EB]2 [^FA]2 G4 | %8
 [FG]2 [Fd]2 [FA]2 [FB]2 | [Ed]2 [Ec]2 [EG]4 | [EB]2 E2 [Ed]2 [Ec]2 | [^FB]2 [FA]2 (A2 G2) | %12
 [EG]2 [Ee]2 [Fe]2 [Fd]2 | [Ed]2 [Ec]2 [^DA]4 | [EG]2 [CE]2 [CF]2 [CE]2 | [B,E]2 [B,D]2 C4 |] %16
V:2
 x8 | x8 | x8 | x4 F4 | x8 | x8 | x8 | x4 G4 | x8 | x8 | x2 E2 x4 | x4 =F4 | x8 | x8 | x8 | %15
 x4 C4 |] %16
V:3
 [C,G,]2 [C,G,]2 [C,A,]2 [C,C]2 | [C,D]2 [C,B,]2 [C,C]4 | [E,G,]2 [E,G,]2 [F,C]2 [F,A,]2 | %3
 [D,D]2 [F,D]2 [G,B,]4 | C2 [C,G,]2 [C,A,]2 [C,C]2 | [C,D]2 [C,B,]2 [C,C]4 | %6
 [D,B,]2 [D,D]2 [D,E]2 [D,D]2 | [D,^C]2 [D,=C]2 [G,B,]4 | [G,B,]2 [G,B,]2 [G,C]2 [G,D]2 | %9
 [G,C]2 [G,C]2 [G,C]4 | [^G,D]2 [G,D]2 [A,B,]2 [A,C]2 | [D,D]2 [D,C]2 (C2 B,2) | %12
 [C,C]2 [C,G,]2 [G,B,]2 [G,B,]2 | [A,C]2 [A,C]2 [^F,C]4 | [G,C]2 [G,,G,]2 [G,,A,]2 [G,,G,]2 | %15
 [G,,F,]2 [G,,F,]2 [C,E,]4 |] %16
V:4
 x8 | x8 | x8 | x8 | C2 x6 | x8 | x8 | x8 | x8 | x8 | x8 | x4 G,4 | x8 | x8 | x8 | x8 |] %16

